X: 1
T: Man of the House
T: Crossing the Shannon
C: traditional Irish
R: Reel
Z: Frank Weber
N: gelernt von Garifin CD
D: 1995: Arcady: Many Happy Returns
D: 1998: Anam: Riptide
D: 2002: Brendan Begley: It Could be a good Night yet - O�che go Maidean
D: 2003: The Chieftains: Further Down the Old Plank Road
D: 1998: Cian: Three Shouts from a Hill
D: 2003: Philip Duffy: Killin' Clocks
D: 1997: Garifin: Rough Land
D: 2004: Hugh & Colm Healy: Macalla na h�ige
D: 2007: Itchy Fingers: Out on the Ocean
D: 2002: Liz & Ivonne Kane: The Well-Tempered Bow
D: 1983: Paddy Keenan: Poirt An Phiobaire
D: 2004: Claire Keville, John Weir & Eithne Ni Dhonaile: An Tri is a Rian
D: 1998: Donal Lunny: Coolfin
D: 2000: Donal Lunny: Journey
D: 2008: Billy McComiskey: Outside the Box
D: 2004: John & Catherine McEvoy: The Kilmore Fancy
D: 1997: The Best of Joe and Antoinette McKenna
D: 1995: Na Connerys: The Session
D: 1996: Liam Connor & Lisa Aherne: The Awakening
D: 1995: James Kelly & Paddy O'Brien: Trad. Music of Ireland
D: 2000: Pat Connor: The Green Mountain
D: 1999: Tim O'Shea: Fair Dawning
D: 1999: Dale Russ & Finn MacGinty: North Amerikay
D: 1999: John Whelan: Come to Dance
D: 2003: Paddy Keenan & Tommy O'Sullivan: Irish Folk Festival 2003: The Road to Tradition
L: 1/8
K: E min
M: 4/4
"Em"E2BE GABG | "Em"~E2BE "D"AFDF | "Em"E2BE "C"GABc | "Bm"dBBA "Em"BEED :|
"Em"efge "D"fgaf | "C"gfed  "Bm"eBB2 | "Em"efge "D"fgaf | "C"gfed "Em"Beed |\
"Em"efge "D"fgaf | "A7"gfed  "D"efga | "G"bgaf "C"gfed | "Bm"eBBA "Em"BEED |]

